X:1
T:Title
%%score { ( 1 3 ) | ( 2 4 ) }
L:1/8
M:4/4
K:F
V:1 treble nm="Grand Piano"
V:3 treble 
V:2 bass 
V:4 bass 
V:1
 z4 z2[Q:1/4=108] C2 | C2 A2 A2 B2 | [FA]4 [EG]2 C2 | C2 [EG]2 [EG]2 G2 |[M:3/4] F6 |[M:1/4] C2 | %6
[M:4/4] C2 A2 A2 B2 | [FA]4 [EG]2 [EG]2 | G2 G2 A2 G2 |[M:3/4] [Ec]6 |[M:1/4] [Bc]2 | %11
[M:4/4] [EBd]2 [EBc]2 [EGB]2 [EGc]2 | [FB]4 [CFA]2 [CFA]2 | [CEA]2 [CEG]2 C2 [B,EG]2 |[M:3/4] F6 | %15
[M:1/4] C2 |[M:4/4] C2 F2 A2 c2 | [Fc]4 [DB]2 [DFB]2 | [FA]2 [FA]2 [EA]2 G2 |[M:3/4] F6 | %20
[M:1/4] A2 |[M:4/4] c2 c2 c2 d2 | c4 A2 c2 | d2 c2 B2 A2 |[M:3/4] [EG]6 |[M:1/4] C2 | %26
[M:4/4] C2 F2 A2 c2 | [Fc]4 [DB]2 [DFB]2 | [FA]2 [FA]2 [EA]2 G2 |[M:3/4] F6 |] %30
V:2
 z4 z2 [F,A,]2 | [F,A,]2 [F,CF]2 [F,CF]2 [F,DF]2 | [C,C]4 [C,C]2 [C,E,]2 | %3
 [C,E,]2 [C,B,]2 [C,B,]2 [C,B,C]2 |[M:3/4] [F,A,C]6 |[M:1/4] [F,A,]2 | %6
[M:4/4] [F,A,]2 [F,CF]2 [F,CF]2 [F,DF]2 | [C,C]4 [C,C]2 [C,C]2 | %8
 [G,=B,F]2 [G,B,F]2 [G,B,F]2 [G,B,F]2 |[M:3/4][K:bass] [C,C]6 |[M:1/4] [C,C]2 | %11
[M:4/4] C,2 C,2 C,2 C,2 | z2 ^C2 F,2 F,2 | C,2 C,2 C,2 C,2 |[M:3/4] [F,A,]6 |[M:1/4] [F,A,]2 | %16
[M:4/4] [F,A,]2 [F,A,C]2 [F,CF]2 [F,A,F]2 | [A,,F,]4 [B,,F,]2 B,,2 | %18
 [C,C]2 [C,C]2 [C,C]2 [C,B,C]2 |[M:3/4] [F,A,C]6 |[M:1/4][K:treble] [F,CF]2 | %21
[M:4/4] [F,A,F]2 [F,A,F]2 [F,A,F]2 [F,B,F]2 | [F,A,F]4 [F,CF]2 [F,A,F]2 | %23
 [B,F]2 [A,CF]2[K:bass] [G,CE]2 [F,CF]2 |[M:3/4] [C,C]6 |[M:1/4] [E,B,]2 | %26
[M:4/4] [F,A,]2 [F,A,C]2 [F,CF]2 [F,A,F]2 | [A,,F,]4 [B,,F,]2 B,,2 | %28
 [C,C]2 [C,C]2 [C,C]2 [C,B,C]2 |[M:3/4] [F,A,C]6 |] %30
V:3
 x8 | x8 | x8 | x8 |[M:3/4] x6 |[M:1/4] x2 |[M:4/4] x8 | x8 | x8 |[M:3/4] x6 |[M:1/4] x2 | %11
[M:4/4] x8 | D2 z2 z4 | x8 |[M:3/4] x6 |[M:1/4] x2 |[M:4/4] x8 | x8 | x8 |[M:3/4] x6 |[M:1/4] x2 | %21
[M:4/4] x8 | x8 | x8 |[M:3/4] x6 |[M:1/4] x2 |[M:4/4] x8 | x8 | x8 |[M:3/4] x6 |] %30
V:4
 x8 | x8 | x8 | x8 |[M:3/4] x6 |[M:1/4] x2 |[M:4/4] x8 | x8 | x8 |[M:3/4][K:bass] x6 |[M:1/4] x2 | %11
[M:4/4] x8 | F,4 z4 | x8 |[M:3/4] x6 |[M:1/4] x2 |[M:4/4] x8 | x8 | x8 |[M:3/4] x6 | %20
[M:1/4][K:treble] x2 |[M:4/4] x8 | x8 | x4[K:bass] x4 |[M:3/4] x6 |[M:1/4] x2 |[M:4/4] x8 | x8 | %28
 x8 |[M:3/4] x6 |] %30

